Sources/FrostedUI/Resources/Icons.xcassets/locationPin32.imageset/location-pin-32.svg

<svg width="32" height="32" viewBox="0 0 32 32" fill="none" xmlns="http://www.w3.org/2000/svg" data-fui-icon="true">
  <path
    d="M16 2C22.3513 2 27.5 7.14873 27.5 13.5C27.5 15.6477 26.7754 17.8089 25.7363 19.8115C24.6949 21.8187 23.3146 23.7106 21.9492 25.334C20.582 26.9596 19.2168 28.3309 18.1943 29.2949C17.6827 29.7774 17.2554 30.1589 16.9551 30.4209C16.805 30.5519 16.6861 30.6527 16.6045 30.7217C16.5639 30.756 16.5325 30.7827 16.5107 30.8008C16.4999 30.8098 16.4912 30.8174 16.4854 30.8223C16.4826 30.8245 16.4801 30.8258 16.4785 30.8271L16.4756 30.8301C16.2337 31.0283 15.8989 31.0529 15.6338 30.9043L15.5244 30.8301C15.5239 30.8297 15.5223 30.8278 15.5215 30.8271C15.5199 30.8258 15.5174 30.8245 15.5146 30.8223C15.5088 30.8174 15.5001 30.8098 15.4893 30.8008C15.4675 30.7827 15.4361 30.756 15.3955 30.7217C15.3139 30.6527 15.195 30.5519 15.0449 30.4209C14.7446 30.1589 14.3173 29.7774 13.8057 29.2949C12.7832 28.3309 11.418 26.9596 10.0508 25.334C8.68545 23.7106 7.30515 21.8187 6.26367 19.8115C5.22458 17.8089 4.5 15.6477 4.5 13.5C4.5 7.14873 9.64873 2 16 2ZM16 3.5C10.4772 3.5 6 7.97715 6 13.5C6 15.3208 6.61917 17.238 7.5957 19.1201C8.56975 20.9974 9.87722 22.7963 11.1992 24.3682C12.5195 25.938 13.8418 27.2667 14.835 28.2031C15.3132 28.654 15.7141 29.0127 16 29.2627C16.2859 29.0127 16.6868 28.654 17.165 28.2031C18.1582 27.2667 19.4805 25.938 20.8008 24.3682C22.1228 22.7963 23.4302 20.9974 24.4043 19.1201C25.3808 17.238 26 15.3208 26 13.5C26 7.97715 21.5228 3.5 16 3.5ZM16 8C19.0376 8 21.5 10.4624 21.5 13.5C21.5 16.5376 19.0376 19 16 19C12.9624 19 10.5 16.5376 10.5 13.5C10.5 10.4624 12.9624 8 16 8ZM16 9.5C13.7909 9.5 12 11.2909 12 13.5C12 15.7091 13.7909 17.5 16 17.5C18.2091 17.5 20 15.7091 20 13.5C20 11.2909 18.2091 9.5 16 9.5Z"
    fill="currentColor"
  />
</svg>

<svg xmlns="http://www.w3.org/2000/svg" width="32" height="32" fill="none" data-fui-icon="true" viewBox="0 0 32 32"><path fill="currentColor" d="M16 2c6.351 0 11.5 5.149 11.5 11.5 0 2.148-.725 4.309-1.764 6.311-1.041 2.008-2.421 3.9-3.787 5.523a48 48 0 0 1-4.994 5.087q-.227.196-.35.3l-.094.08-.026.021q-.004.004-.006.005l-.003.003a.75.75 0 0 1-.842.074l-.11-.074-.002-.003-.007-.005-.026-.021-.094-.08q-.123-.104-.35-.3a48.002 48.002 0 0 1-4.994-5.087c-1.366-1.623-2.746-3.515-3.787-5.523C5.224 17.81 4.5 15.648 4.5 13.5 4.5 7.149 9.649 2 16 2m0 1.5c-5.523 0-10 4.477-10 10 0 1.82.62 3.738 1.596 5.62.974 1.877 2.281 3.676 3.603 5.248A46.5 46.5 0 0 0 16 29.263a46.509 46.509 0 0 0 4.8-4.894c1.323-1.573 2.63-3.372 3.604-5.249.977-1.882 1.596-3.8 1.596-5.62 0-5.523-4.477-10-10-10M16 8a5.5 5.5 0 1 1 0 11 5.5 5.5 0 0 1 0-11m0 1.5a4 4 0 1 0 0 8 4 4 0 0 0 0-8"/></svg>
